X:1
T: Catching Rabbits
C:Ian Powrie
R:Reel
Q: 212
K:D
M:4/4
L:1/8
|:A2|F2 AB A2 de|f2 ef ed BA|B2 ed e2 ef|ge fd ed BA|
F2 AB A2 de|f2 ef ed BA|B2 ef ge fd|eA ce d2:|
|:ag|f2 ef ed Bd|AB de f2 ed|B2 ed e2 ef|
|1ge fd e2 ag|f2 ef ed Bd|AB de f2 ed|B2 ef ge fd|eA ce d2:|
|2ge fd ed BA|F2 AB A2 de|f2 ef ed BA|B2 ef ge fd|eA ce d2||
